X:27
T:Boyne Hunt, The
M:4/4
L:1/8
R:Reel
K:D
A|: BAFA DAFA| DAFA BEEB| BAFA DAFB| ABde fddA|
 |BAFA D3 A| BAFA BEEB| BAFA DAFA |1ABde fd dA :|2ABde fd de|
|: faab afed| gfga beeg| faab afed| ABde fdde|
| faab afed| gfga beeg| f3e d3 B|1ABde fd de :|2ABde fd dA|
